src/assets/images/comprehensive/insurance-plan/long-term-care.svg

<?xml version="1.0" encoding="UTF-8"?>
<svg width="29px" height="27px" viewBox="0 0 29 27" version="1.1" xmlns="http://www.w3.org/2000/svg" xmlns:xlink="http://www.w3.org/1999/xlink">
    <!-- Generator: Sketch 59 (86127) - https://sketch.com -->
    <title>Icon/Insurance/Long term care</title>
    <desc>Created with Sketch.</desc>
    <defs>
        <polygon id="path-1" points="0 0 4.17861757 0 4.17861757 4.29681872 0 4.29681872"></polygon>
        <polygon id="path-3" points="0 0 9.69124305 0 9.69124305 19.974797 0 19.974797"></polygon>
        <polygon id="path-5" points="0 0 5.82189775 0 5.82189775 10.8144669 0 10.8144669"></polygon>
    </defs>
    <g id="Icon/Insurance/Long-term-care" stroke="none" stroke-width="1" fill="none" fill-rule="evenodd">
        <g id="Group-9" transform="translate(2.000000, 1.000000)">
            <g id="Group">
                <path d="M15.6662036,6.08095843 C16.8398494,6.21310047 17.8955779,5.34162607 18.0238591,4.13482348 C18.1523705,2.92802088 17.3050701,1.84270372 16.1314243,1.71032486 C14.9577785,1.57841963 13.90205,2.44965722 13.7735386,3.65645981 C13.6450271,4.8632624 14.4923275,5.94881639 15.6662036,6.08095843" id="Fill-1" fill="#00A7A7"></path>
                <g id="Group-5" transform="translate(0.675172, 0.000000)">
                    <mask id="mask-2" fill="white">
                        <use xlink:href="#path-1"></use>
                    </mask>
                    <g id="Clip-4"></g>
                    <path d="M1.86211329,4.28409302 C3.00900588,4.41322844 4.04066907,3.56181406 4.16602606,2.38223833 C4.29160809,1.20289402 3.46362186,0.142270997 2.31672927,0.0129041472 C1.16983668,-0.115999852 0.138173489,0.735414532 0.0125914507,1.91475884 C-0.112990587,3.09410314 0.714995645,4.15495759 1.86211329,4.28409302" id="Fill-3" fill="#00A7A7" mask="url(#mask-2)"></path>
                </g>
                <path d="M15.3683469,10.4667688 L18.6302713,13.9389987 C19.0696067,14.4066624 19.7973901,14.422328 20.2559253,13.9744767 C20.7142346,13.526395 20.7298203,12.7841229 20.2907107,12.3164592 L14.9021318,6.58101355 L14.899873,6.58331731 C14.4734127,6.09077301 13.8750582,5.75050737 13.184319,5.67356173 C11.7115853,5.50907313 10.3870285,6.59345386 10.2257506,8.09550663 L9.35724432,16.1874704 L10.6223948,16.328691 L11.2320433,25.0968089 L13.9143612,25.0968089 L13.9143612,16.6963714 L14.6904828,16.7829928 L15.3683469,10.4667688 Z" id="Fill-6" fill="#00A7A7"></path>
                <g id="Group-10" transform="translate(0.000000, 5.322786)">
                    <mask id="mask-4" fill="white">
                        <use xlink:href="#path-3"></use>
                    </mask>
                    <g id="Clip-9"></g>
                    <path d="M9.52285442,5.17768252 C9.85301365,4.62272419 9.6830953,3.89766813 9.14340762,3.55816693 L3.84037974,0.453593963 C3.44405363,0.168477758 2.96288088,0 2.44254813,0 C1.09355398,0 0,1.12449646 0,2.51142943 L0,9.91357378 L1.10795766,9.91357378 L1.5342164,19.974797 L4.05801026,19.974797 L4.05801026,9.91357378 L4.8848712,9.91357378 L4.8848712,3.77478119 L7.94790263,5.56809733 C8.48759031,5.9073671 9.1926952,5.73264085 9.52285442,5.17768252" id="Fill-8" fill="#00A7A7" mask="url(#mask-4)"></path>
                </g>
                <g id="Group-13" transform="translate(18.004593, 14.579806)">
                    <mask id="mask-6" fill="white">
                        <use xlink:href="#path-5"></use>
                    </mask>
                    <g id="Clip-12"></g>
                    <path d="M1.09783007,3.04139381 L1.1531942,1.75351095 C1.17637511,1.21058675 1.60848535,0.785226693 2.13737028,0.785226693 L3.68464001,0.785226693 C4.21352493,0.785226693 4.64563517,1.21058675 4.66904114,1.75351095 L4.72440527,3.04139381 L1.09783007,3.04139381 Z M5.05906564,10.8145132 L5.82201028,10.7797994 L5.43198578,1.71879713 C5.3901251,0.754909953 4.62290437,0 3.68464001,0 L2.13737028,0 C1.1986558,0 0.431435066,0.754909953 0.390249559,1.71879713 L0,10.7797994 L0.762944639,10.8145132 L1.06407146,3.8266205 L4.75838894,3.8266205 L5.05906564,10.8145132 Z" id="Fill-11" fill="#00A7A7" mask="url(#mask-6)"></path>
                </g>
            </g>
        </g>
    </g>
</svg>

<svg xmlns="http://www.w3.org/2000/svg" xmlns:xlink="http://www.w3.org/1999/xlink" width="24" height="26" viewBox="0 0 24 26">
    <defs>
        <path id="a" d="M0 0h4.179v4.297H0z"/>
        <path id="c" d="M0 0h9.691v19.975H0z"/>
        <path id="e" d="M0 0h5.822v10.814H0z"/>
    </defs>
    <g fill="none" fill-rule="evenodd">
        <path fill="#00A7A7" d="M15.666 6.081c1.174.132 2.23-.74 2.358-1.946.128-1.207-.719-2.292-1.893-2.425-1.173-.132-2.229.74-2.357 1.946-.129 1.207.718 2.293 1.892 2.425"/>
        <g transform="translate(.675)">
            <mask id="b" fill="#fff">
                <use xlink:href="#a"/>
            </mask>
            <path fill="#00A7A7" d="M1.862 4.284c1.147.13 2.179-.722 2.304-1.902.126-1.18-.702-2.24-1.85-2.37C1.17-.115.139.736.014 1.916c-.126 1.18.702 2.24 1.85 2.37" mask="url(#b)"/>
        </g>
        <path fill="#00A7A7" d="M15.368 10.467l3.262 3.472c.44.468 1.167.483 1.626.035a1.19 1.19 0 0 0 .035-1.658l-5.389-5.735-.002.002a2.652 2.652 0 0 0-1.716-.91c-1.472-.164-2.797.92-2.958 2.423l-.869 8.091 1.265.142.61 8.768h2.682v-8.4l.776.086.678-6.316z"/>
        <g transform="translate(0 5.323)">
            <mask id="d" fill="#fff">
                <use xlink:href="#c"/>
            </mask>
            <path fill="#00A7A7" d="M9.523 5.178c.33-.555.16-1.28-.38-1.62L3.84.454A2.384 2.384 0 0 0 2.443 0C1.093 0 0 1.124 0 2.511v7.403h1.108l.426 10.06h2.524V9.915h.827v-6.14l3.063 1.794c.54.34 1.245.165 1.575-.39" mask="url(#d)"/>
        </g>
        <g transform="translate(18.005 14.58)">
            <mask id="f" fill="#fff">
                <use xlink:href="#e"/>
            </mask>
            <path fill="#00A7A7" d="M1.098 3.041l.055-1.287a.996.996 0 0 1 .984-.969h1.548c.529 0 .96.426.984.969l.055 1.287H1.098zm3.961 7.774l.763-.035-.39-9.061C5.39.755 4.622 0 3.685 0H2.137C1.2 0 .431.755.39 1.719L0 10.779l.763.036.301-6.988h3.694l.301 6.988z" mask="url(#f)"/>
        </g>
    </g>
</svg>
